packages/netlify-cms-ui-default/src/Icon/images/grid.svg

<svg height="24" viewBox="0 0 24 24" width="24" xmlns="http://www.w3.org/2000/svg"><path d="m5 3h3c1.1045695 0 2 .8954305 2 2v3c0 1.1045695-.8954305 2-2 2h-3c-1.1045695 0-2-.8954305-2-2v-3c0-1.1045695.8954305-2 2-2zm11 0h3c1.1045695 0 2 .8954305 2 2v3c0 1.1045695-.8954305 2-2 2h-3c-1.1045695 0-2-.8954305-2-2v-3c0-1.1045695.8954305-2 2-2zm0 11h3c1.1045695 0 2 .8954305 2 2v3c0 1.1045695-.8954305 2-2 2h-3c-1.1045695 0-2-.8954305-2-2v-3c0-1.1045695.8954305-2 2-2zm-11 0h3c1.1045695 0 2 .8954305 2 2v3c0 1.1045695-.8954305 2-2 2h-3c-1.1045695 0-2-.8954305-2-2v-3c0-1.1045695.8954305-2 2-2z"/></svg>

<svg xmlns="http://www.w3.org/2000/svg" xmlns:xlink="http://www.w3.org/1999/xlink" width="24" height="24" viewBox="0 0 24 24"><path id="icon-grid@2x-a" d="M5,3 L8,3 L8,3 C9.1045695,3 10,3.8954305 10,5 L10,8 L10,8 C10,9.1045695 9.1045695,10 8,10 L5,10 L5,10 C3.8954305,10 3,9.1045695 3,8 L3,5 L3,5 C3,3.8954305 3.8954305,3 5,3 L5,3 Z M16,3 L19,3 C20.1045695,3 21,3.8954305 21,5 L21,8 L21,8 C21,9.1045695 20.1045695,10 19,10 L16,10 L16,10 C14.8954305,10 14,9.1045695 14,8 L14,5 L14,5 C14,3.8954305 14.8954305,3 16,3 Z M16,14 L19,14 C20.1045695,14 21,14.8954305 21,16 L21,19 L21,19 C21,20.1045695 20.1045695,21 19,21 L16,21 C14.8954305,21 14,20.1045695 14,19 L14,16 C14,14.8954305 14.8954305,14 16,14 Z M5,14 L8,14 L8,14 C9.1045695,14 10,14.8954305 10,16 L10,19 L10,19 C10,20.1045695 9.1045695,21 8,21 L5,21 C3.8954305,21 3,20.1045695 3,19 L3,16 C3,14.8954305 3.8954305,14 5,14 L5,14 Z"/></svg>
